X:142
T:The Austrian - Camp Duties #3 *
B:American Veteran Fifer - Camp Duties #3
M:2/4
L:1/16
Q:1/4=90
K:G
%%MIDI channel 1
%%MIDI program 72
%%MIDI transpose 20
%%MIDI grace 1/8
%%MIDI ratio 2 1
D|G>ABc d>ef>d|g2g2f2 z d|e2e2d2 z B|c>ec>A B>dB>G|A>cA>F G2:|B2 d>BG>B A>F D>d|d>BG>B A2B2|
d>BG>B A>FD>B|d>BG>B A2||D2|G>AB>c d>ef>d|g2g2a2 a d|e2e2d2 z B2|c>ec>A B>dB>G|A>cA>F G4|\
^"Dr. Roll."\
c8|c8|c4 z4||
